X: 41466
T: Two William Davises, The
R: reel
M: 4/4
K: Gmajor
|:(Bc)||(c/d5/g) edcB|(dc/B/) (dg) edcB|(cB) (AB) GABc|d3(c B3/2) (c/d2)|
e2 (ef/g/) e2(de)|(fg/f/)(g/g/a) b2(ab)|gfed3/4 (f/g2)B2|(G/A7/) G2||
(Bc)||(d5/f/g) edcB|(dc/B/) (d/f/g) edcB|(cB) (AB) GABc|(c/d5/) (c B2) d2|
(d/e3/2) (ef/g/) e2(d/e/e)|(fg/f/)(g/g/a) b2(a/a/b)|gfed3/4 (f/g2)B2|(G/A7/) G2||
(ga)||b2{a}b(a/b/ b2)(ag)|(g/a/g)(a/a/b) a2(ga)|(ba)(g/d/e) (dg) (Bc)|(c/d5/) (c B2) d2|
e2 (ef/g/) e2(d/e/e)|(fg/f/)(g/g/a) b2(a/a/b)|gfed3/4 (f/g2)B2|(G/A7/) G2||
(ga)||{a}b2b(a/b/ b2)(ag)|(g/a/g)(a/a/b) a2(g/g/a)|(b3/2a/)(g/d/e) (df/g/) (Bc)|(c/d5/) (c B3/2) (c/d2)|
(d/e3/2) (ef/g/) e2(de/e/)|(fg/f/)(g/g/a) b2(ab)|gfed3/4 (f/g2)B2|(G/A7/) G2:|

